build/img/logo-black.svg

<svg width="178" height="36" viewBox="0 0 178 36" fill="none" xmlns="http://www.w3.org/2000/svg">
<path d="M35.0714 0H29.5409C29.3386 0 29.2037 0.0674451 29.0688 0.202335L0.202335 29.0688C0.0674451 29.2037 0 29.3386 0 29.5409V35.0714C0 35.4087 0.26978 35.7459 0.674451 35.7459H6.20495C6.40728 35.7459 6.54217 35.6784 6.67706 35.5436L35.5436 6.67706C35.6784 6.54217 35.7459 6.40728 35.7459 6.20495V0.674451C35.7459 0.26978 35.4761 0 35.0714 0Z" fill="#28272D"/>
<path d="M1.14657 14.3658L14.3658 1.14657C14.8379 0.674451 14.5007 0 13.9611 0H0.674451C0.26978 0 0 0.26978 0 0.674451V13.9611C0 14.5007 0.674451 14.8379 1.14657 14.3658Z" fill="#28272D"/>
<path d="M34.5995 21.3803L21.3803 34.5996C20.9082 35.0717 21.2454 35.7461 21.785 35.7461H35.0716C35.4089 35.7461 35.7461 35.4764 35.7461 35.0717V21.785C35.7461 21.2454 35.0716 20.9082 34.5995 21.3803Z" fill="#28272D"/>
<path d="M61.2787 22.1713L70.4483 13.7658V13.5111H62.1065V9.69043H76.1156V13.7658L66.946 22.1713V22.4897H76.434V26.2466H61.2787V22.1713Z" fill="#28272D"/>
<path d="M78.9166 17.5229H86.8126V21.5346H78.9166V17.5229Z" fill="#28272D"/>
<path d="M90.3164 9.69043H103.052V13.4474H94.6464V16.2492H102.67V20.0062H94.6464V26.2466H90.3164V9.69043Z" fill="#28272D"/>
<path d="M110.374 9.69043H115.531L122.281 25.2915V26.2466H117.824L116.741 23.5722H109.164L108.081 26.2466H103.751V25.2915L110.374 9.69043ZM110.692 19.8152H115.149L113.112 14.721H112.73L110.692 19.8152Z" fill="#28272D"/>
<path d="M138.838 13.702V14.7845H134.381C133.935 13.7657 132.534 13.1289 131.197 13.1289C129.669 13.1289 128.586 13.6383 128.586 14.4661C128.586 15.3576 130.114 15.7397 131.579 16.0581C134.572 16.6948 138.965 17.5863 138.965 21.216C138.965 24.5909 135.782 26.6286 131.706 26.6286C128.14 26.6286 125.147 24.9729 123.874 22.0438V20.9612H128.331C128.841 21.9801 130.178 22.6169 131.77 22.6169C133.298 22.6169 134.572 22.2348 134.572 21.2796C134.572 20.4518 133.171 20.0698 131.515 19.7514C128.586 19.1783 124.192 18.2868 124.192 14.5298C124.192 11.3459 127.376 9.11719 131.197 9.11719C134.89 9.18087 137.628 11.0912 138.838 13.702Z" fill="#28272D"/>
<path d="M147.119 9.69067H152.277L159.026 25.2917V26.2469H154.569L153.487 23.5724H145.973L144.89 26.2469H140.56V25.2917L147.119 9.69067ZM147.437 19.8154H151.895L149.857 14.7212H149.475L147.437 19.8154Z" fill="#28272D"/>
<path d="M161.444 9.69067H168.894C174.052 9.69067 178 12.7472 178 17.9688C178 23.1904 174.052 26.2469 168.894 26.2469H161.38V9.69067H161.444ZM165.774 13.5113V22.5536H168.958C171.632 22.5536 173.67 20.898 173.67 18.0325C173.67 15.1033 171.696 13.575 168.958 13.575H165.774V13.5113Z" fill="#28272D"/>
</svg>

<svg width="178" height="36" fill="none" xmlns="http://www.w3.org/2000/svg">
    <path d="M35.071 0h-5.53a.612.612 0 0 0-.472.202L.202 29.07A.612.612 0 0 0 0 29.54v5.53c0 .338.27.675.674.675h5.53a.613.613 0 0 0 .473-.202L35.544 6.677a.613.613 0 0 0 .202-.472V.675c0-.405-.27-.675-.675-.675zM1.147 14.366l13.219-13.22C14.838.675 14.5 0 13.96 0H.674C.27 0 0 .27 0 .674v13.287c0 .54.674.877 1.147.405zM34.6 21.38 21.38 34.6c-.472.472-.135 1.146.405 1.146h13.287c.337 0 .674-.27.674-.674V21.785c0-.54-.674-.877-1.147-.405zM61.279 22.171l9.17-8.405v-.255h-8.343v-3.82h14.01v4.075l-9.17 8.405v.319h9.488v3.757H61.279V22.17zM78.917 17.523h7.896v4.012h-7.896v-4.012zM90.316 9.69h12.736v3.757h-8.406v2.802h8.024v3.757h-8.024v6.24h-4.33V9.69zM110.374 9.69h5.157l6.75 15.601v.956h-4.457l-1.083-2.675h-7.577l-1.083 2.675h-4.33v-.956l6.623-15.6zm.318 10.125h4.457l-2.037-5.094h-.382l-2.038 5.094zM138.838 13.702v1.082h-4.457c-.446-1.018-1.847-1.655-3.184-1.655-1.528 0-2.611.51-2.611 1.337 0 .892 1.528 1.274 2.993 1.592 2.993.637 7.386 1.528 7.386 5.158 0 3.375-3.183 5.413-7.259 5.413-3.566 0-6.559-1.656-7.832-4.585V20.96h4.457c.51 1.02 1.847 1.656 3.439 1.656 1.528 0 2.802-.382 2.802-1.337 0-.828-1.401-1.21-3.057-1.529-2.929-.573-7.323-1.464-7.323-5.221 0-3.184 3.184-5.413 7.005-5.413 3.693.064 6.431 1.974 7.641 4.585zM147.119 9.69h5.158l6.749 15.602v.955h-4.457l-1.082-2.675h-7.514l-1.083 2.675h-4.33v-.955l6.559-15.601zm.318 10.125h4.458l-2.038-5.094h-.382l-2.038 5.094zM161.444 9.69h7.45c5.158 0 9.106 3.057 9.106 8.279 0 5.221-3.948 8.278-9.106 8.278h-7.514V9.69h.064zm4.33 3.821v9.043h3.184c2.674 0 4.712-1.656 4.712-4.521 0-2.93-1.974-4.458-4.712-4.458h-3.184v-.064z" fill="#28272D"/>
</svg>
